dist/img/skills/basic/pug.svg

<svg width="128" height="128" viewBox="0 0 128 128" fill="none" xmlns="http://www.w3.org/2000/svg">
<g opacity="0.32" clip-path="url(#clip0)">
<path d="M106.503 30.6244C113.195 33.9237 128.482 50.6137 127.988 51.7149C127.487 52.8139 120.192 58.9092 117.994 61.3072C113.22 72.2622 108.915 80.1067 107.369 71.3709C105.612 81.8772 101.85 80.9574 100.38 86.0899C98.2363 96.6497 92.0678 97.0099 89.267 98.9812C86.6985 101.55 83.0188 100.068 80.1788 101.525C72.965 104.217 55.9238 104.692 49.1108 101.624C45.4663 100.053 43.6418 102.497 33.3545 95.4497C27.874 90.0002 29.4233 87.5214 27.5263 83.8597C24.3943 78.4584 23.285 81.9834 20.8705 69.9162C20.1393 79.6587 14.8818 74.4462 10.0363 61.2502C10.0363 61.2502 0.506035 52.8017 0.0120347 51.7152C-0.489215 50.6137 14.7978 33.9237 21.4978 30.6244C40.4933 22.0119 85.5645 22.2394 106.503 30.6244H106.503ZM74.04 59.6449C84.3023 63.1209 94 74.1617 92.3985 84.2919C92.3985 89.5522 91.9293 93.1084 91.1635 95.5039C99.926 89.7544 96.0868 87.9059 99.5728 82.3779C102.863 76.7637 103.523 78.8189 105.223 71.2202C104.206 63.6137 103.223 50.1344 102.008 46.1089C100.946 42.6514 95.809 35.4649 92.4948 31.0664C76.3333 24.8282 44.3333 26.8282 36.123 30.8194C32.8138 35.1907 27.4545 42.6244 26.368 46.1807C25.2195 49.9937 24.1763 63.1034 23.213 70.8582C24.007 78.2344 29.571 81.4959 30.4008 85.4007C31.289 91.6867 34.159 93.8257 38.1408 95.9732C37.2515 93.5282 36.733 89.8239 36.733 84.1437C35.073 72.4214 46.463 62.4462 55.688 59.5709C58.2388 52.8004 72.0368 53.4259 74.0398 59.6449H74.04ZM75.8273 87.8964C75.8273 80.7344 69.9573 74.7814 65.5613 74.4232L65.8203 63.8904C74.3128 63.3504 73.327 57.1324 64.751 56.6962C58.161 56.7532 53.5353 62.8197 63.6468 63.8779L63.639 74.3862C59.243 74.3862 53.4548 80.4572 53.4548 87.7524C54.1398 80.4317 59.842 76.6449 65.0523 76.8027C70.128 76.9562 74.709 80.8657 75.8273 87.8964ZM41.5588 52.5992C41.5588 50.8377 39.6388 49.7307 38.1113 50.6117C36.5833 51.4922 36.5833 53.7062 38.1113 54.5867C39.6388 55.4677 41.5588 54.3607 41.5588 52.5992ZM32.5593 64.1099C26.7113 60.7384 26.7113 52.2639 32.5593 48.8924C38.4075 45.5209 45.7573 49.7582 45.7573 56.5012C45.7573 63.2442 38.4073 67.4812 32.5593 64.1099ZM87.6123 64.1099C81.7643 60.7384 81.7643 52.2639 87.6123 48.8924C93.4605 45.5209 100.81 49.7582 100.81 56.5012C100.81 63.2442 93.4603 67.4812 87.6123 64.1099ZM92.0183 52.5992C92.0183 50.8377 90.0983 49.7307 88.5708 50.6117C87.0433 51.4927 87.0428 53.7062 88.5708 54.5867C90.0988 55.4672 92.0183 54.3607 92.0183 52.5992Z" fill="#F8F8FF"/>
</g>
<defs>
<clipPath id="clip0">
<rect width="128" height="128" fill="white"/>
</clipPath>
</defs>
</svg>

<svg width="128" height="128" fill="none" xmlns="http://www.w3.org/2000/svg"><g opacity=".32" clip-path="url(#clip0)"><path d="M106.503 30.624c6.692 3.3 21.979 19.99 21.485 21.09-.501 1.1-7.796 7.195-9.994 9.593-4.774 10.955-9.079 18.8-10.625 10.064-1.757 10.506-5.519 9.586-6.989 14.719-2.144 10.56-8.312 10.92-11.113 12.891-2.569 2.569-6.248 1.087-9.088 2.544-7.214 2.692-24.255 3.167-31.068.099-3.645-1.571-5.47.873-15.756-6.174-5.481-5.45-3.932-7.929-5.829-11.59-3.132-5.402-4.241-1.877-6.655-13.944-.732 9.743-5.99 4.53-10.835-8.666 0 0-9.53-8.448-10.024-9.535-.501-1.101 14.786-17.791 21.486-21.09 18.995-8.613 64.067-8.386 85.005 0zM74.04 59.644C84.302 63.122 94 74.163 92.398 84.293c0 5.26-.469 8.816-1.234 11.212 8.762-5.75 4.923-7.598 8.409-13.126 3.29-5.614 3.95-3.56 5.65-11.158-1.017-7.606-2-21.086-3.215-25.111-1.062-3.458-6.199-10.644-9.513-15.043-16.162-6.238-48.162-4.238-56.372-.247-3.31 4.372-8.668 11.805-9.755 15.362-1.148 3.813-2.192 16.922-3.155 24.677.794 7.376 6.358 10.638 7.188 14.543.888 6.286 3.758 8.425 7.74 10.572-.89-2.445-1.408-6.15-1.408-11.83-1.66-11.722 9.73-21.697 18.955-24.572 2.55-6.77 16.349-6.145 18.352.074zm1.787 28.252c0-7.162-5.87-13.115-10.266-13.473l.26-10.533c8.492-.54 7.506-6.758-1.07-7.194-6.59.057-11.216 6.124-1.104 7.182l-.008 10.508c-4.396 0-10.184 6.071-10.184 13.366.685-7.32 6.387-11.107 11.597-10.95 5.076.154 9.657 4.064 10.775 11.094zM41.56 52.6c0-1.761-1.92-2.868-3.448-1.987-1.528.88-1.528 3.094 0 3.975 1.528.88 3.448-.226 3.448-1.988zm-9 11.51c-5.848-3.37-5.848-11.845 0-15.217 5.849-3.371 13.198.866 13.198 7.61 0 6.742-7.35 10.98-13.198 7.608zm55.053 0c-5.848-3.37-5.848-11.845 0-15.217 5.849-3.371 13.198.866 13.198 7.61 0 6.742-7.35 10.98-13.198 7.608zm4.406-11.51c0-1.761-1.92-2.868-3.447-1.987-1.528.88-1.528 3.094 0 3.975 1.528.88 3.447-.226 3.447-1.988z" fill="#F8F8FF"/></g><defs><clipPath id="clip0"><path fill="#fff" d="M0 0h128v128H0z"/></clipPath></defs></svg>
